build/img/350spots.svg

<svg width="108" height="75" viewBox="0 0 108 75" fill="none" xmlns="http://www.w3.org/2000/svg">
<path d="M12.0298 22.2896H16.7793C18.582 22.2896 19.8994 21.6655 20.7314 20.4175C21.5866 19.1463 22.0142 17.4591 22.0142 15.356C22.0142 13.3452 21.575 11.7852 20.6968 10.6758C19.8416 9.54329 18.686 8.97705 17.23 8.97705C15.8664 8.97705 14.7454 9.50863 13.8672 10.5718C13.012 11.6349 12.5845 12.9754 12.5845 14.5933H2.77344C2.77344 11.9585 3.37435 9.60107 4.57617 7.521C5.80111 5.41781 7.49984 3.77686 9.67236 2.59814C11.868 1.41943 14.2948 0.830078 16.9526 0.830078C21.5981 0.830078 25.2383 2.11279 27.873 4.67822C30.5078 7.24365 31.8252 10.7567 31.8252 15.2173C31.8252 17.5054 31.2243 19.6317 30.0225 21.5962C28.8438 23.5376 27.2837 25.0283 25.3423 26.0684C27.7228 27.0853 29.4909 28.6107 30.6465 30.6445C31.8252 32.6784 32.4146 35.082 32.4146 37.8555C32.4146 42.3392 30.9816 45.9331 28.1157 48.6372C25.2729 51.3413 21.5288 52.6934 16.8833 52.6934C12.5614 52.6934 9.04834 51.3644 6.34424 48.7065C3.66325 46.0256 2.32275 42.5125 2.32275 38.1675H12.1338C12.1338 39.9702 12.6076 41.484 13.5552 42.709C14.5028 43.9339 15.7046 44.5464 17.1606 44.5464C18.8478 44.5464 20.1768 43.9224 21.1475 42.6743C22.1413 41.4263 22.6382 39.7622 22.6382 37.6821C22.6382 32.7131 20.7083 30.217 16.8486 30.1938H12.0298V22.2896ZM40.2148 27.1777L42.7109 1.52344H67.1519V9.91309H50.7539L49.8525 20.7295C51.7477 19.4583 53.7007 18.8228 55.7114 18.8228C59.8716 18.8228 63.0726 20.3019 65.3145 23.2603C67.5794 26.2186 68.7119 30.4019 68.7119 35.8101C68.7119 40.8716 67.3714 44.9508 64.6904 48.0479C62.0094 51.1449 58.4271 52.6934 53.9434 52.6934C51.2855 52.6934 48.8241 52.0693 46.5591 50.8213C44.2941 49.5501 42.5029 47.7936 41.1855 45.5518C39.8913 43.3099 39.2326 40.7676 39.2095 37.9248H48.9165C49.0783 40.028 49.5983 41.6574 50.4766 42.813C51.3548 43.9686 52.4873 44.5464 53.874 44.5464C55.4919 44.5464 56.7399 43.7721 57.6182 42.2236C58.4964 40.652 58.9355 38.3177 58.9355 35.2207C58.9355 32.3086 58.404 30.113 57.3408 28.6338C56.3008 27.1546 54.8332 26.415 52.938 26.415C51.089 26.415 49.6561 27.0506 48.6392 28.3218L48.0151 29.1885L40.2148 27.1777ZM104.455 31.1299C104.455 38.1097 103.183 43.4486 100.641 47.1465C98.1219 50.8444 94.5164 52.6934 89.8247 52.6934C85.1792 52.6934 81.5853 50.9022 79.043 47.3198C76.5238 43.7144 75.2179 38.5604 75.1255 31.8579V22.3242C75.1255 15.3675 76.3851 10.0518 78.9043 6.37695C81.4235 2.67904 85.0405 0.830078 89.7554 0.830078C94.4702 0.830078 98.0872 2.65592 100.606 6.30762C103.126 9.95931 104.408 15.1711 104.455 21.9429V31.1299ZM94.6089 20.9028C94.6089 16.9276 94.216 13.9461 93.4302 11.9585C92.6444 9.97087 91.4194 8.97705 89.7554 8.97705C86.6353 8.97705 85.0174 12.6172 84.9019 19.8975V32.4819C84.9019 36.5496 85.2948 39.5773 86.0806 41.5649C86.8895 43.5526 88.1375 44.5464 89.8247 44.5464C91.4194 44.5464 92.5981 43.6219 93.3608 41.7729C94.1466 39.9009 94.5627 37.0465 94.6089 33.21V20.9028Z" fill="url(#paint0_linear)"/>
<path d="M4.53223 72.3252L6.51465 66.6035H8.01855V74H6.81543V68.9004L4.94922 74H4.12207L2.21484 68.7773V74H1.01172V66.6035H2.57031L4.53223 72.3252ZM12.5986 74.1367C11.6781 74.1367 10.9717 73.8633 10.4795 73.3164C9.9873 72.765 9.73665 71.9583 9.72754 70.8965V70.001C9.72754 68.8981 9.9668 68.0345 10.4453 67.4102C10.9284 66.7812 11.6006 66.4668 12.4619 66.4668C13.3278 66.4668 13.9749 66.7425 14.4033 67.2939C14.8317 67.8454 15.0505 68.7044 15.0596 69.8711V70.6641H10.9307V70.835C10.9307 71.6279 11.0788 72.2044 11.375 72.5645C11.6758 72.9245 12.1064 73.1045 12.667 73.1045C13.0225 73.1045 13.3346 73.0384 13.6035 72.9062C13.877 72.7695 14.1322 72.5553 14.3691 72.2637L14.998 73.0293C14.474 73.7676 13.6742 74.1367 12.5986 74.1367ZM12.4619 67.5059C11.9606 67.5059 11.5892 67.679 11.3477 68.0254C11.1061 68.3672 10.9694 68.9004 10.9375 69.625H13.8496V69.4609C13.8177 68.7591 13.6901 68.2578 13.4668 67.957C13.248 67.6562 12.9131 67.5059 12.4619 67.5059ZM19.0859 73.1045C19.487 73.1045 19.8083 72.9814 20.0498 72.7354C20.2913 72.4847 20.4235 72.1292 20.4463 71.6689H21.5879C21.5605 72.3799 21.3076 72.9701 20.8291 73.4395C20.3551 73.9043 19.7741 74.1367 19.0859 74.1367C18.1699 74.1367 17.4704 73.8496 16.9873 73.2754C16.5088 72.6966 16.2695 71.8376 16.2695 70.6982V69.8848C16.2695 68.7682 16.5088 67.9206 16.9873 67.3418C17.4658 66.7585 18.1631 66.4668 19.0791 66.4668C19.8356 66.4668 20.4349 66.7061 20.877 67.1846C21.3236 67.6631 21.5605 68.3171 21.5879 69.1465H20.4463C20.4189 68.5996 20.2868 68.1895 20.0498 67.916C19.8174 67.6426 19.4938 67.5059 19.0791 67.5059C18.5413 67.5059 18.1426 67.6836 17.8828 68.0391C17.623 68.39 17.4886 68.9688 17.4795 69.7754V70.7188C17.4795 71.5892 17.6071 72.2044 17.8623 72.5645C18.1221 72.9245 18.5299 73.1045 19.0859 73.1045ZM27.6582 67.6289H25.6416V74H24.4385V67.6289H22.4492V66.6035H27.6582V67.6289Z" fill="#2E35AC"/>
<defs>
<linearGradient id="paint0_linear" x1="0" y1="3" x2="23.4754" y2="70.4479" gradientUnits="userSpaceOnUse">
<stop stop-color="#D10A42"/>
<stop offset="1" stop-color="#0041CA"/>
</linearGradient>
</defs>
</svg>

<svg width="108" height="75" fill="none" xmlns="http://www.w3.org/2000/svg"><path d="M12.03 22.29h4.75c1.802 0 3.12-.624 3.951-1.872.856-1.272 1.283-2.959 1.283-5.062 0-2.01-.439-3.57-1.317-4.68-.855-1.133-2.011-1.699-3.467-1.699-1.364 0-2.485.532-3.363 1.595-.855 1.063-1.283 2.403-1.283 4.021h-9.81c0-2.634.6-4.992 1.802-7.072C5.801 5.418 7.5 3.777 9.672 2.598 11.868 1.42 14.295.83 16.952.83c4.646 0 8.286 1.283 10.921 3.848 2.635 2.566 3.952 6.079 3.952 10.54 0 2.287-.6 4.414-1.802 6.378-1.18 1.942-2.74 3.432-4.68 4.472 2.38 1.017 4.148 2.543 5.303 4.576 1.18 2.034 1.769 4.438 1.769 7.212 0 4.483-1.433 8.077-4.3 10.781-2.842 2.704-6.586 4.056-11.232 4.056-4.322 0-7.835-1.329-10.539-3.986-2.68-2.681-4.021-6.194-4.021-10.54h9.81c0 1.803.475 3.317 1.422 4.542.948 1.225 2.15 1.837 3.606 1.837 1.687 0 3.016-.624 3.986-1.872.994-1.248 1.491-2.912 1.491-4.992 0-4.969-1.93-7.465-5.79-7.488H12.03V22.29zm28.185 4.888L42.71 1.523h24.44v8.39H50.755l-.901 10.817c1.895-1.272 3.848-1.907 5.858-1.907 4.16 0 7.362 1.479 9.603 4.437 2.265 2.959 3.398 7.142 3.398 12.55 0 5.062-1.34 9.14-4.022 12.238-2.68 3.097-6.263 4.645-10.747 4.645-2.657 0-5.119-.624-7.384-1.872a14.174 14.174 0 01-5.373-5.27c-1.295-2.241-1.953-4.783-1.977-7.626h9.707c.162 2.103.682 3.732 1.56 4.888.879 1.156 2.011 1.733 3.398 1.733 1.618 0 2.866-.774 3.744-2.322.878-1.572 1.317-3.906 1.317-7.003 0-2.912-.531-5.108-1.594-6.587-1.04-1.48-2.508-2.219-4.403-2.219-1.849 0-3.282.636-4.299 1.907l-.624.867-7.8-2.011zm64.24 3.952c0 6.98-1.272 12.319-3.814 16.017-2.52 3.697-6.125 5.546-10.816 5.546-4.646 0-8.24-1.79-10.782-5.373-2.52-3.606-3.825-8.76-3.918-15.462v-9.534c0-6.957 1.26-12.272 3.78-15.947C81.423 2.679 85.04.83 89.754.83s8.332 1.826 10.851 5.478c2.52 3.651 3.802 8.863 3.849 15.635v9.187zm-9.846-10.227c0-3.975-.393-6.957-1.179-8.944-.786-1.988-2.01-2.982-3.675-2.982-3.12 0-4.738 3.64-4.853 10.92v12.585c0 4.068.393 7.095 1.179 9.083.808 1.988 2.056 2.981 3.744 2.981 1.594 0 2.773-.924 3.536-2.773.786-1.872 1.202-4.727 1.248-8.563V20.903z" fill="url(#paint0_linear)"/><path d="M4.532 72.325l1.983-5.722h1.504V74H6.815v-5.1L4.95 74h-.827l-1.907-5.223V74H1.012v-7.397H2.57l1.962 5.722zm8.067 1.812c-.92 0-1.627-.274-2.12-.82-.492-.552-.742-1.359-.751-2.42V70c0-1.103.239-1.967.717-2.59.483-.63 1.156-.944 2.017-.944.866 0 1.513.276 1.941.827.429.551.647 1.41.657 2.577v.793h-4.13v.171c0 .793.149 1.37.445 1.73.3.36.731.54 1.292.54.356 0 .668-.067.937-.199.273-.137.528-.35.765-.642l.629.765c-.524.739-1.324 1.108-2.4 1.108zm-.137-6.631c-.501 0-.873.173-1.114.52-.242.341-.379.874-.41 1.599h2.912v-.164c-.032-.702-.16-1.203-.383-1.504-.219-.3-.554-.451-1.005-.451zm6.624 5.599c.401 0 .722-.124.964-.37.241-.25.373-.606.396-1.066h1.142c-.027.71-.28 1.301-.759 1.77-.474.465-1.055.698-1.743.698-.916 0-1.616-.287-2.099-.862-.478-.578-.717-1.437-.717-2.577v-.813c0-1.117.239-1.964.717-2.543.479-.584 1.176-.875 2.092-.875.757 0 1.356.24 1.798.718.447.478.684 1.132.71 1.962h-1.14c-.028-.547-.16-.958-.397-1.231-.233-.273-.556-.41-.97-.41-.539 0-.937.178-1.197.533-.26.351-.394.93-.403 1.736v.944c0 .87.127 1.485.382 1.846.26.36.668.54 1.224.54zm8.572-5.476h-2.016V74h-1.203v-6.371h-1.99v-1.026h5.21v1.026z" fill="#2E35AC"/><defs><linearGradient id="paint0_linear" x1="0" y1="3" x2="23.475" y2="70.448" gradientUnits="userSpaceOnUse"><stop stop-color="#D10A42"/><stop offset="1" stop-color="#0041CA"/></linearGradient></defs></svg>
